src/4-icons/hold.svg

<svg width="260" height="260" viewBox="0 0 260 260" fill="none" xmlns="http://www.w3.org/2000/svg">
<path fill-rule="evenodd" clip-rule="evenodd" d="M211.156 138C209.657 150.668 207.923 164.082 206.296 175.374C204.997 184.342 203.788 191.946 202.791 196.945C202.066 200.519 201.22 203.791 199.951 206.821C198.681 209.82 196.898 212.668 194.33 214.941C192.637 216.456 190.613 217.638 188.407 218.456C185.475 219.546 182.242 220 178.706 220H79.9574C75.435 220 71.4956 216.965 70.3209 212.598L50.2543 138H27C12.0883 138 0 125.912 0 111C0 96.0883 12.0883 84 27 84H82.005C82.0063 78.9001 82.0078 75.1033 82.0089 72.1283L82.009 72.032C82.0102 68.817 82.0111 66.5673 82.0111 64.6644C82.0111 61.5732 82.6757 58.6051 83.915 56.0595C85.1544 53.5138 86.9368 51.3635 88.9918 49.7267C93.1325 46.4545 98.2092 45 103.164 45C106.912 45 110.658 45.8166 114.073 47.6048C116.999 49.1369 120.414 53 120.414 57.0879C121.499 53 130.332 51.8513 133.383 51.8513C137.13 51.8513 140.877 52.6691 144.292 54.4561C147.676 56.2136 150.758 59.061 152.631 62.9084C153.144 63.9392 153.537 65.0895 153.84 66.241C156.982 64.8185 160.367 64.0907 163.72 64.0907C167.407 64.0907 171.155 64.9085 174.539 66.6659C177.923 68.4233 181.006 71.2412 182.848 75.0886C183.423 76.2093 183.846 77.452 184.148 78.7242C187.35 77.2709 190.796 76.5431 194.24 76.5431C197.897 76.5738 201.554 77.3005 204.907 79.0272C207.198 80.1861 209.347 81.8532 211.057 84H233C247.912 84 260 96.0883 260 111C260 125.912 247.912 138 233 138H211.156ZM214.976 98C214.874 101.242 214.531 105.663 214.063 110.964C213.694 114.898 213.243 119.302 212.738 124H233C240.18 124 246 118.18 246 111C246 103.82 240.18 98 233 98H214.976ZM27 124C19.8203 124 14 118.18 14 111C14 103.82 19.8203 98 27 98H82.0021C82.0011 105.009 82.0005 113.536 82.0005 124H27ZM79.7113 204.034L64 138H84.435C89.9832 138 94.4709 133.491 94.436 127.943C94.3229 109.931 94.0992 73.2448 94.0992 64.6893C94.0992 63.2656 94.3719 62.2348 94.7944 61.3862C95.3988 60.114 96.3962 59.1436 97.8763 58.3566C99.327 57.5991 101.23 57.1151 103.164 57.1447C105.762 57.1447 108.241 57.9625 109.781 59.2359C110.566 59.8714 111.141 60.5696 111.534 61.417C111.958 62.2655 112.23 63.2951 112.23 64.72V80.6783C112.23 84.016 114.935 86.7209 118.273 86.7209C121.611 86.7209 124.316 84.0182 124.316 80.6805V71.5725C124.316 70.1488 124.589 69.1192 125.012 68.2707C125.616 66.9985 126.613 66.0292 128.094 65.241C129.544 64.4836 131.447 63.9996 133.382 64.0292C135.981 64.0292 138.458 64.8469 140 66.1191C140.786 66.7547 141.36 67.4517 141.753 68.3003C142.175 69.1488 142.448 70.1784 142.448 71.6021V87.7356C142.448 91.0733 145.154 93.779 148.491 93.779C151.829 93.779 154.535 91.0745 154.535 87.7368V83.7208C154.535 82.3574 154.808 81.3574 155.23 80.5396C155.834 79.3278 156.861 78.3277 158.343 77.5407C159.824 76.7537 161.787 76.2993 163.722 76.2993C166.321 76.2993 168.768 77.1171 170.279 78.3289C171.034 78.9349 171.608 79.6319 172.001 80.4497C172.394 81.2982 172.665 82.2971 172.665 83.722V93.8617C172.665 97.2638 175.423 100.022 178.825 100.022C182.135 100.022 184.738 97.3914 185.17 94.1101C185.244 93.5525 185.326 93.1312 185.417 92.9624C186.021 91.8109 187.079 90.7813 188.65 89.9931C190.221 89.2049 192.246 88.7209 194.24 88.7517C196.808 88.7517 199.226 89.5387 200.615 90.6902C201.34 91.2665 201.853 91.9021 202.246 92.6891C202.609 93.4772 202.88 94.4465 202.88 95.8702V95.9613L202.881 95.9625V96.8111C202.791 100.476 202.248 107.446 201.4 115.867C200.131 128.561 198.197 144.74 196.234 159.524C194.27 174.278 192.276 187.7 190.885 194.577C190.341 197.364 189.737 199.667 189.043 201.454C188.529 202.787 187.985 203.817 187.441 204.575C186.595 205.726 185.839 206.332 184.631 206.907C183.393 207.453 181.518 207.877 178.708 207.877H84.5672C82.2516 207.877 80.2473 206.287 79.7113 204.034Z" fill="black"/>
</svg>

<svg width="260" height="260" viewBox="0 0 260 260" fill="none" xmlns="http://www.w3.org/2000/svg"><path fill-rule="evenodd" clip-rule="evenodd" d="M211.156 138c-1.499 12.668-3.233 26.082-4.86 37.374-1.299 8.968-2.508 16.572-3.505 21.571-.725 3.574-1.571 6.846-2.84 9.876-1.27 2.999-3.053 5.847-5.621 8.12-1.693 1.515-3.717 2.697-5.923 3.515-2.932 1.09-6.165 1.544-9.701 1.544H79.957a9.976 9.976 0 0 1-9.636-7.402L50.254 138H27c-14.912 0-27-12.088-27-27s12.088-27 27-27h55.005l.004-11.872v-.096l.002-7.368c0-3.09.665-6.059 1.904-8.605a18.446 18.446 0 0 1 5.077-6.332C93.132 46.455 98.209 45 103.164 45c3.748 0 7.494.817 10.909 2.605 2.926 1.532 6.341 5.395 6.341 9.483 1.085-4.088 9.918-5.237 12.969-5.237 3.747 0 7.494.818 10.909 2.605 3.384 1.758 6.466 4.605 8.339 8.452.513 1.031.906 2.181 1.209 3.333a24.02 24.02 0 0 1 9.88-2.15c3.687 0 7.435.818 10.819 2.575 3.384 1.757 6.467 4.575 8.309 8.423.575 1.12.998 2.363 1.3 3.635a24.422 24.422 0 0 1 10.092-2.18c3.657.03 7.314.757 10.667 2.483 2.291 1.16 4.44 2.826 6.15 4.973H233c14.912 0 27 12.088 27 27s-12.088 27-27 27h-21.844Zm3.82-40c-.102 3.242-.445 7.663-.913 12.964-.369 3.934-.82 8.338-1.325 13.036H233c7.18 0 13-5.82 13-13s-5.82-13-13-13h-18.024ZM27 124c-7.18 0-13-5.82-13-13s5.82-13 13-13h55.002l-.001 26H27Zm52.711 80.034L64 138h20.435c5.548 0 10.036-4.509 10.001-10.057-.113-18.012-.337-54.698-.337-63.254 0-1.423.273-2.454.695-3.303.605-1.272 1.602-2.242 3.082-3.03 1.451-.757 3.354-1.24 5.288-1.211 2.598 0 5.077.817 6.617 2.09.785.636 1.36 1.335 1.753 2.182.424.849.696 1.878.696 3.303v15.958a6.042 6.042 0 0 0 6.043 6.043 6.04 6.04 0 0 0 6.043-6.04v-9.108c0-1.424.273-2.454.696-3.302.604-1.272 1.601-2.242 3.082-3.03 1.45-.757 3.353-1.241 5.288-1.212 2.599 0 5.076.818 6.618 2.09.786.636 1.36 1.333 1.753 2.181.422.849.695 1.878.695 3.302v16.134a6.043 6.043 0 0 0 12.087 0v-4.015c0-1.364.273-2.364.695-3.181.604-1.212 1.631-2.212 3.113-3 1.481-.786 3.444-1.24 5.379-1.24 2.599 0 5.046.817 6.557 2.029.755.606 1.329 1.303 1.722 2.12.393.85.664 1.848.664 3.273v10.14a6.16 6.16 0 0 0 6.16 6.16c3.31 0 5.913-2.63 6.345-5.912.074-.558.156-.979.247-1.148.604-1.151 1.662-2.18 3.233-2.969 1.571-.788 3.596-1.272 5.59-1.241 2.568 0 4.986.787 6.375 1.938a5.754 5.754 0 0 1 1.631 2c.363.787.634 1.757.634 3.18v.091l.001.002v.848c-.09 3.665-.633 10.635-1.481 19.056-1.269 12.694-3.203 28.873-5.166 43.657-1.964 14.754-3.958 28.176-5.349 35.053-.544 2.787-1.148 5.09-1.842 6.877-.514 1.333-1.058 2.363-1.602 3.121-.846 1.151-1.602 1.757-2.81 2.332-1.238.546-3.113.97-5.923.97h-94.14a4.99 4.99 0 0 1-4.857-3.843Z" fill="#000"/></svg>
